X:114
T: Der junge Held
N: Q1060E
O: Mitteleuropa, Deutschland / Frankreich, Lothringen
N: Melodievergleich zu Q0060A, anderes Lied. Verzierung im letzten Takt.
R: Tage - Lied
M: none
L: 1/8
K: D
D2 | D2D2D2A3B=c2 | B2A2G4
G2 | A2AAd3ed2 | =cBA4
AG | A2d2=c2B2A2 | =c2d2A4
c2 | B2A2G4A2 | =F2E2D4
D2 | D2D2A4G2 | A_BA3G=F2 | E4D4

